48x48/mimetypes/application-vnd.scribus.svg

<svg xmlns="http://www.w3.org/2000/svg" width="48" height="48" version="1.1">
 <path style="opacity:0.2" d="M 10,5 C 8.892,5 8,5.892 8,7 V 43 C 8,44.108 8.892,45 10,45 H 38 C 39.108,45 40,44.108 40,43 V 17 L 28,5 Z"/>
 <path style="fill:#37a0f2" d="M 10,4 C 8.892,4 8,4.892 8,6 V 42 C 8,43.108 8.892,44 10,44 H 38 C 39.108,44 40,43.108 40,42 V 16 L 30,14 28,4 Z"/>
 <path style="opacity:0.2" d="M 40,17 28,5 V 15 C 28,16.108 28.892,17 30,17 Z"/>
 <path style="fill:#73bcf7" d="M 40,16 28,4 V 14 C 28,15.108 28.892,16 30,16 Z"/>
 <path style="opacity:0.2;fill:#f4f4f7" d="M 10 4 C 8.892 4 8 4.892 8 6 L 8 7 C 8 5.892 8.892 5 10 5 L 28 5 L 28 4 L 10 4 z"/>
 <path style="opacity:0.2;fill-rule:evenodd" d="m 25.499775,21.504073 c -2.451825,4.30444 -4.396051,8.146185 -5.651775,12.452414 -0.665251,2.304907 -1.26525,4.692171 -1.848,7.007976 0.9495,0.08329 0.767025,-0.0069 1.499774,1.8e-4 0.539251,-1.252481 1.616476,-2.444245 2.364976,-3.313742 1.857749,-2.005993 3.62775,-2.904292 5.885249,-3.692055 0.033,-2.361732 -0.132749,-4.704003 0.789751,-6.775382 C 28.917751,26.322529 29.511,25.399321 30,24.617785 30,22.28252 27.749999,19.947254 25.5,21.504098 Z"/>
 <path style="fill:#f4f4f7;fill-rule:evenodd" d="m 25.499775,20.504073 c -2.451825,4.30444 -4.396051,8.146185 -5.651775,12.452414 -0.665251,2.304907 -1.26525,4.692171 -1.848,7.007976 0.9495,0.08329 0.767025,-0.0069 1.499774,1.8e-4 0.539251,-1.252481 1.616476,-2.444245 2.364976,-3.313742 1.857749,-2.005993 3.62775,-2.904292 5.885249,-3.692055 0.033,-2.361732 -0.132749,-4.704003 0.789751,-6.775382 C 28.917751,25.322529 29.511,24.399321 30,23.617785 30,21.28252 27.749999,18.947254 25.5,20.504098 Z"/>
</svg>

<svg xmlns="http://www.w3.org/2000/svg" width="48" height="48"><path style="opacity:.2" d="M10 5c-1.108 0-2 .892-2 2v36c0 1.108.892 2 2 2h28c1.108 0 2-.892 2-2V17L28 5z"/><path style="fill:#37a0f2" d="M10 4c-1.108 0-2 .892-2 2v36c0 1.108.892 2 2 2h28c1.108 0 2-.892 2-2V16l-10-2-2-10z"/><path style="opacity:.2" d="M40 17 28 5v10c0 1.108.892 2 2 2z"/><path style="fill:#73bcf7" d="M40 16 28 4v10c0 1.108.892 2 2 2z"/><path style="opacity:.2;fill:#f4f4f7" d="M10 4c-1.108 0-2 .892-2 2v1c0-1.108.892-2 2-2h18V4H10z"/><path style="opacity:.2;fill-rule:evenodd" d="M25.5 21.504c-2.452 4.305-4.396 8.146-5.652 12.452-.665 2.305-1.265 4.693-1.848 7.008.95.084.767-.006 1.5 0 .539-1.252 1.616-2.444 2.365-3.313 1.857-2.006 3.627-2.904 5.885-3.692.033-2.362-.133-4.704.79-6.776.378-.86.971-1.784 1.46-2.565 0-2.335-2.25-4.67-4.5-3.114z"/><path style="fill:#f4f4f7;fill-rule:evenodd" d="M25.5 20.504c-2.452 4.305-4.396 8.146-5.652 12.452-.665 2.305-1.265 4.693-1.848 7.008.95.084.767-.006 1.5 0 .539-1.252 1.616-2.444 2.365-3.313 1.857-2.006 3.627-2.904 5.885-3.692.033-2.362-.133-4.704.79-6.776.378-.86.971-1.784 1.46-2.565 0-2.335-2.25-4.67-4.5-3.114z"/></svg>
